X: 26766
T: Mill Stream, The
R: reel
M: 4/4
K: Dmajor
|:A2FD EDEF|ADFD G2GB|ADFD EDB,D|AFGE D2FG:|
A3c cAGc|Addc dfed|A3c cBGB|AFGE D2GF|
EAAB cBAc|Addc d2ed|cAAc BAGB|AFGE D2FG||

